icons/analysis-overlay-32.svg

<?xml version="1.0" encoding="UTF-8"?><svg id="icons" xmlns="http://www.w3.org/2000/svg" viewBox="0 0 32 32"><path d="M24,19H9L3,29H30l-6-10Zm-14.43359,1h13.38654l-4.3172,2.34863-6.84766,1.71191c-.03516,.00879-.07031,.02148-.10254,.0376l-6.54041,3.2702,4.42126-7.36835Zm2.51758,5.01709l6.85547-1.71387c.04102-.01025,.08105-.02539,.11816-.04541l4.77301-2.59613,4.40326,7.33832H6.11816l5.96582-2.98291Zm-4.08398-11.51709c0-.58832-.15973-1.1347-.41736-1.62189l5.38672-3.97351c.63812,.67133,1.53363,1.0954,2.53064,1.0954,1.10175,0,2.07428-.52203,2.71637-1.32043l4.04773,2.49615c-.16809,.40912-.2641,.85535-.2641,1.32428,0,1.92969,1.57031,3.5,3.5,3.5s3.5-1.57031,3.5-3.5-1.57031-3.5-3.5-3.5c-1.10175,0-2.07434,.52203-2.71643,1.3205l-4.04773-2.49609c.16815-.40912,.26416-.85541,.26416-1.3244,0-1.92969-1.57031-3.5-3.5-3.5s-3.5,1.57031-3.5,3.5c0,.573,.15161,1.10632,.39685,1.58423l-5.39331,3.97839c-.63623-.65344-1.52185-1.06262-2.50354-1.06262-1.92969,0-3.5,1.57031-3.5,3.5s1.57031,3.5,3.5,3.5,3.5-1.57031,3.5-3.5Zm17.5-4.5c1.37891,0,2.5,1.12158,2.5,2.5s-1.12109,2.5-2.5,2.5-2.5-1.12158-2.5-2.5,1.12109-2.5,2.5-2.5ZM15.5,3c1.37891,0,2.5,1.12158,2.5,2.5s-1.12109,2.5-2.5,2.5-2.5-1.12158-2.5-2.5,1.12109-2.5,2.5-2.5ZM2,13.5c0-1.37842,1.12109-2.5,2.5-2.5s2.5,1.12158,2.5,2.5-1.12109,2.5-2.5,2.5-2.5-1.12158-2.5-2.5Z"/><path fill="none" d="M0 0h32v32H0z"/></svg>

<svg xmlns="http://www.w3.org/2000/svg" viewBox="0 0 32 32"><path d="M24 19H9L3 29h27l-6-10zM9.566 20h13.387l-4.317 2.349-6.848 1.712a.505.505 0 0 0-.102.037l-6.54 3.27L9.565 20zm2.518 5.017l6.855-1.714a.51.51 0 0 0 .119-.045l4.773-2.596L28.234 28H6.118l5.966-2.983zM8 13.5c0-.588-.16-1.135-.417-1.622l5.386-3.973A3.482 3.482 0 0 0 15.5 9a3.48 3.48 0 0 0 2.716-1.32l4.048 2.496A3.475 3.475 0 0 0 22 11.5c0 1.93 1.57 3.5 3.5 3.5s3.5-1.57 3.5-3.5S27.43 8 25.5 8a3.48 3.48 0 0 0-2.716 1.32l-4.048-2.496C18.904 6.415 19 5.97 19 5.5 19 3.57 17.43 2 15.5 2S12 3.57 12 5.5c0 .573.152 1.106.397 1.584l-5.393 3.979A3.485 3.485 0 0 0 4.5 10C2.57 10 1 11.57 1 13.5S2.57 17 4.5 17 8 15.43 8 13.5zM25.5 9c1.379 0 2.5 1.122 2.5 2.5S26.879 14 25.5 14 23 12.878 23 11.5 24.121 9 25.5 9zm-10-6C16.879 3 18 4.122 18 5.5S16.879 8 15.5 8 13 6.878 13 5.5 14.121 3 15.5 3zM2 13.5C2 12.122 3.121 11 4.5 11S7 12.122 7 13.5 5.879 16 4.5 16 2 14.878 2 13.5z"/><path fill="none" d="M0 0h32v32H0z"/></svg>
